web-magafilio/image/home/icon-divulgue.svg

<svg width="51" height="45" viewBox="0 0 51 45" fill="none" xmlns="http://www.w3.org/2000/svg">
<path d="M47.3754 16.426V3.1945C47.3754 2.50266 46.77 0.427124 44.608 0.427124C43.9162 0.427124 43.3108 0.686566 42.8784 1.11897L35.4411 6.99965C31.8089 9.93999 27.1389 11.4966 22.469 11.4966H5.86469C2.75138 11.4966 0.329926 14.0046 0.329926 17.0314V25.3335C0.329926 28.4468 2.75138 30.8683 5.86469 30.8683L5.7782 33.6357C5.7782 37.0949 6.55653 40.3812 8.0267 43.235C8.4591 44.1863 9.41039 44.7052 10.4482 44.7052H19.6151C21.8636 44.7052 23.2473 42.1973 21.8636 40.3812C20.4799 38.4786 19.6151 36.2301 19.6151 33.6357C19.6151 32.6844 19.7881 31.8196 19.961 30.8683H22.469C27.1389 30.8683 31.8089 32.5114 35.4411 35.4518L42.8784 41.3325C43.2243 41.6784 44.0026 41.9378 44.5215 41.9378C46.6835 41.9378 47.2889 40.0352 47.2889 39.1704V26.0254C49.0185 25.0741 50.0563 23.258 50.0563 21.1825C50.1428 19.1934 49.0185 17.3773 47.3754 16.426ZM19.6151 41.9378H10.4482C9.23743 39.3434 8.54558 36.576 8.54558 33.7222V30.9548L8.63206 30.8683H17.1936C17.0207 31.8196 16.8477 32.7709 16.8477 33.6357C16.8477 36.749 17.799 39.6028 19.6151 41.9378ZM5.86469 28.1009C4.30803 28.1009 3.09731 26.8902 3.09731 25.3335V17.0314C3.09731 15.5612 4.30803 14.264 5.86469 14.264H22.469V28.1009H5.86469ZM44.608 39.084C44.608 39.1704 44.5215 39.1704 44.5215 39.1704L37.1707 33.2898C33.7114 30.5224 29.5604 28.8792 25.2363 28.3604V14.0911C29.5604 13.5722 33.7114 11.8426 37.1707 9.16167L44.5215 3.28098C44.5215 3.28098 44.5215 3.28098 44.608 3.28098V39.084Z" fill="#FDAA08"/>
</svg>

<svg width="51" height="45" fill="none" xmlns="http://www.w3.org/2000/svg"><path d="M47.375 16.426V3.195c0-.692-.605-2.768-2.767-2.768-.692 0-1.297.26-1.73.692l-7.437 5.88C31.81 9.94 27.14 11.498 22.47 11.498H5.865A5.518 5.518 0 00.33 17.03v8.303c0 3.113 2.421 5.534 5.535 5.534l-.087 2.768c0 3.459.779 6.745 2.249 9.599.432.951 1.383 1.47 2.421 1.47h9.167c2.249 0 3.632-2.508 2.249-4.324-1.384-1.902-2.249-4.15-2.249-6.745 0-.952.173-1.816.346-2.768h2.508c4.67 0 9.34 1.643 12.972 4.584l7.437 5.88c.346.346 1.125.606 1.644.606 2.162 0 2.767-1.903 2.767-2.768V26.025c1.73-.95 2.767-2.767 2.767-4.842.087-1.99-1.037-3.806-2.68-4.757zm-27.76 25.512h-9.167c-1.21-2.595-1.902-5.362-1.902-8.216v-2.767l.086-.087h8.562c-.173.952-.346 1.903-.346 2.768 0 3.113.951 5.967 2.767 8.302zM5.865 28.1a2.732 2.732 0 01-2.768-2.767V17.03c0-1.47 1.211-2.767 2.768-2.767h16.604v13.837H5.865zm38.743 10.983c0 .086-.086.086-.086.086l-7.351-5.88c-3.46-2.768-7.61-4.41-11.935-4.93V14.091c4.324-.519 8.475-2.248 11.935-4.93l7.35-5.88h.087v35.803z" fill="#FDAA08"/></svg>
